(Projekt Rückseite)
(Erstellt mit Estlcam Version 11 Build 11,117)
(Laufzeit ca. 00:15:49 Stunden)

(Benötigte Werkzeuge:)
(Fräser 6mm)

M03 S24000
G00 Z3.0000


(Nr. 1 Ausschnitt: Ausschnitt 27)
G00 X10.8170 Y133.0116
G00 Z-3.6000
G01 Z-4.1000 F800 S24000
G02 X9.0086 Y135.1466 Z-5.6500 I0.1830 J1.9884
G03 X10.8170 Y133.0116 Z-7.2000 I1.9914 J-0.1466
G02 X9.3695 Y136.1527 I0.1830 J1.9884 F2200
G02 X12.8135 Y135.8357 I1.6305 J-1.1527
G02 X10.8170 Y133.0116 I-1.8135 J-0.8357
G00 Z3.0000


(Nr. 2 Ausschnitt: Ausschnitt 28)
G00 X191.3592 Y133.8621 Z3.0000
G00 Z-3.6000
G01 Z-4.1000 F800
G02 X191.8323 Y136.6197 Z-5.6500 I1.6408 J1.1379
G03 X191.3592 Y133.8621 Z-7.2000 I1.1677 J-1.6197
G02 X192.8349 Y136.9899 I1.6408 J1.1379 F2200
G02 X194.8059 Y134.1480 I0.1651 J-1.9899
G02 X191.3592 Y133.8621 I-1.8059 J0.8520
G00 Z3.0000


(Nr. 3 Tasche linear: Ausschnitt 21)
G00 X196.5446 Y13.4000 Z3.0000
G00 Z0.5000
G01 Z0.0000 F800
G01 X192.4446 Z-2.0500
G01 X196.5446 Z-4.1000
G01 X7.4554 F2200
G01 X6.6769 Y15.2000
G01 X197.3230
G01 X15.3604
G01 Y17.0000
G01 X6.6000
G01 Y18.8000
G01 X13.5404
G01 X12.6844 Y20.6000
G01 X6.6000
G01 Y22.4000
G01 X12.4027
G01 X12.4000 Y24.2000
G01 X6.6000
G01 Y26.0000
G01 X12.4000
G01 Y27.8000
G01 X6.6000
G01 Y29.6000
G01 X12.4000
G01 Y31.4000
G01 X6.6000
G01 Y33.2000
G01 X12.4000
G01 Y35.0000
G01 X6.6000
G01 Y36.8000
G01 X12.4000
G01 Y38.6000
G01 X6.6000
G01 Y40.4000
G01 X12.4000
G01 Y42.2000
G01 X6.6000
G01 Y44.0000
G01 X12.4000
G01 Y45.8000
G01 X6.6000
G01 Y47.6000
G01 X11.8533
G01 X10.3635 Y49.4000
G01 X6.6000
G01 Y51.2000
G01 X9.6255
G00 Z3.0000
G00 X51.3527 Y15.2000
G00 Z0.5000
G01 Z-4.1000 F800
G01 Y17.0000 F2200
G01 X70.6473
G01 X67.6078
G01 Y18.8000
G01 X54.3927
G01 X56.2796 Y20.6000
G01 X65.7204
G01 X64.4029 Y22.4000
G01 X57.5971
G01 X58.5236 Y24.2000
G01 X63.4769
G01 X62.8617 Y26.0000
G01 X59.1383
G01 X59.4909 Y27.8000
G01 X62.5091
G00 Z3.0000
G00 X116.6399 Y15.2000
G00 Z0.5000
G01 Z-4.1000 F800
G01 Y17.0000 F2200
G01 X123.3604
G01 X121.5404 Y18.8000
G01 X118.4599
G00 Z3.0000
G00 X174.6399 Y15.2000
G00 Z0.5000
G01 Z-4.1000 F800
G01 Y17.0000 F2200
G01 X181.3581
G01 X179.5388 Y18.8000
G01 X176.4599
G00 Z3.0000
G00 X188.6453 Y15.2000
G00 Z0.5000
G01 Z-4.1000 F800
G01 Y17.0000 F2200
G01 X197.4000
G01 Y18.8000
G01 X190.4615
G01 X191.3160 Y20.6000
G01 X197.4000
G01 Y22.4000
G01 X191.5969
G01 X191.6000 Y24.2000
G01 X197.4000
G01 Y26.0000
G01 X191.6000
G01 Y27.8000
G01 X197.4000
G01 Y29.6000
G01 X191.6000
G01 Y31.4000
G01 X197.4000
G01 Y33.2000
G01 X191.6000
G01 Y35.0000
G01 X197.4000
G01 Y36.8000
G01 X191.6000
G01 Y38.6000
G01 X197.4000
G01 Y40.4000
G01 X191.6000
G01 Y42.2000
G01 X197.4000
G01 Y44.0000
G01 X191.6000
G01 Y45.8000
G01 X197.4000
G01 Y47.6000
G01 X191.6000
G01 Y49.4000
G01 X197.4000
G01 Y51.2000
G01 X191.6000
G01 Y53.0000
G01 X197.4000
G01 Y54.8000
G01 X191.6000
G00 Z3.0000
G00 X9.6804 Y98.0000
G00 Z0.5000
G01 Z0.0000 F800
G01 X6.6100 Z-2.0500
G01 X9.6804 Z-4.1000
G01 X6.6000 F2200
G01 Y99.8000
G01 X10.4822
G01 X12.0954 Y101.6000
G01 X6.6000
G01 Y103.4000
G01 X12.4000
G01 Y105.2000
G01 X6.6000
G01 Y107.0000
G01 X12.4000
G01 Y108.8000
G01 X6.6000
G01 Y110.6000
G01 X12.4000
G01 Y112.4000
G01 X6.6000
G01 Y114.2000
G01 X12.4000
G01 Y116.0000
G01 X6.6000
G01 Y117.8000
G01 X12.4000
G01 Y119.6000
G01 X6.6000
G01 Y121.4000
G01 X12.4000
G01 Y123.2000
G01 X6.6000
G01 Y125.0000
G01 X12.4000
G01 Y126.8000
G01 X6.6000
G01 Y128.6000
G01 X12.4026
G01 X12.6844 Y130.4000
G01 X6.6000
G01 Y132.2000
G01 X13.5401
G01 X15.3601 Y134.0000
G01 X6.6000
G01 X6.6770 Y135.8000
G01 X197.3231
G01 X197.4000 Y134.0000
G01 X188.6396
G01 X190.4596 Y132.2000
G01 X197.4000
G01 Y130.4000
G01 X191.3156
G01 X191.5973 Y128.6000
G01 X197.4000
G01 Y126.8000
G01 X191.6000
G01 Y125.0000
G01 X197.4000
G01 Y123.2000
G01 X191.6000
G01 Y121.4000
G01 X197.4000
G01 Y119.6000
G01 X191.6000
G01 Y117.8000
G01 X197.4000
G01 Y116.0000
G01 X191.6000
G01 Y114.2000
G01 X197.4000
G00 Z3.0000
G00 X152.6473 Y135.8000
G00 Z0.5000
G01 Z-4.1000 F800
G01 Y134.0000 F2200
G01 X133.3527
G01 X136.3922
G01 Y132.2000
G01 X149.6073
G01 X147.7204 Y130.4000
G01 X138.2796
G01 X139.5971 Y128.6000
G01 X146.4029
G01 X145.4764 Y126.8000
G01 X140.5231
G00 Z3.0000
G00 X196.5446 Y135.8000
G00 Z0.5000
G01 Z-4.1000 F800
G01 Y137.6000 F2200
G01 X7.4554
G00 Z3.0000
G00 X13.5401 Y132.2000
G00 Z0.5000
G01 Z-4.1000 F800
G01 X14.2594 Y132.1742 F2200
G03 X13.0036 Y128.6472 I4.7363 J-3.6735
G01 X13.0000 Y128.4800
G01 X12.9996 Y101.5110
G01 X13.1635 Y101.3635
G01 X13.4927 Y101.1472
G01 X13.1635 Y101.3635
G01 X12.9996 Y101.5110
G03 X10.0030 Y96.1697 I3.5004 J-5.4751
G01 X10.0000 Y96.0159
G01 Y52.9641
G03 X12.7772 Y47.6378 I6.5051 J0.0046
G01 X13.0000 Y47.0168
G01 Y47.4800
G01 X13.3183 Y47.7256
G01 X13.4981 Y47.8446
G01 X13.3183 Y47.7256
G01 X13.0000 Y47.4800
G01 Y22.5000
G03 X19.0200 Y16.5000 I6.0055 J0.0055
G01 X46.0000
G01 X46.6448 Y16.5169
G03 X59.0000 Y29.5000 I-0.6456 J12.9847
G01 X58.1213 Y30.3787
G01 X59.0000 Y29.5000
G01 X63.0000
G01 X63.8787 Y30.3787
G01 X63.0000 Y29.5000
G01 X63.0169 Y28.8552
G03 X76.0200 Y16.5000 I12.9848 J0.6456
G01 X113.0000
G03 X119.0000 Y22.5200 I-0.0055 J6.0055
G01 Y49.4310
G01 X119.0073 Y49.5897
G02 X120.9938 Y49.4237 I0.9927 J-0.0897
G01 X120.9652 Y49.1938
G01 X120.9429 Y48.8947
G01 X120.9420 Y48.7933
G01 X121.0000 Y26.4961
G01 Y22.5000
G03 X127.0200 Y16.5000 I6.0055 J0.0055
G01 X171.0000
G03 X177.0000 Y22.5200 I-0.0055 J6.0055
G01 X177.0003 Y49.4327
G01 X177.0084 Y49.5977
G02 X178.9997 Y49.4327 I0.9941 J-0.1008
G01 X179.0000 Y22.5000
G03 X191.0000 Y22.5200 I6.0000 J0.0015
G01 Y55.9200
G01 X191.0060 Y56.0487
G02 X191.5800 Y56.5000 I0.5090 J-0.0567
G03 X198.5153 Y63.0200 I0.4082 J6.5144
G01 Y106.0000
G03 X191.5800 Y112.5000 I-6.5282 J-0.0155
G02 X191.0060 Y112.9513 I-0.0649 J0.5081
G01 X191.0000 Y113.0800
G01 Y128.5000
G03 X184.9800 Y134.5000 I-6.0055 J-0.0055
G01 X158.0000
G01 X157.3552 Y134.4831
G03 X145.3558 Y124.5133 I0.6440 J-12.9810
G01 X145.8102 Y124.0943
G01 X146.0649 Y123.7925
G01 X145.8102 Y124.0943
G01 X145.3558 Y124.5133
G01 X145.0830 Y124.5000
G01 X145.3400
G01 X140.6600
G01 X140.9170
G01 X140.6442 Y124.5133
G01 X139.9787 Y123.7549
G01 X140.6442 Y124.5133
G03 X127.9800 Y134.5000 I-12.6467 J-3.0142
G01 X19.0000
G03 X14.2594 Y132.1742 I0.0051 J-6.0046
G01 X13.5401 Y132.2000
G00 Z3.0000
G00 X6.6000
G00 Z0.5000
G01 Z-4.1000 F800
G01 X6.0000 F2200
G01 Y134.9509
G01 X6.0125 Y135.3287
G02 X11.0600 Y140.0000 I4.9912 J-0.3305
G01 X192.9509
G02 X198.0000 Y134.9509 I0.0446 J-5.0045
G01 Y16.0491
G02 X192.9509 Y11.0000 I-5.0045 J-0.0446
G01 X11.0491
G02 X6.0123 Y15.6749 I-0.0458 J5.0015
G01 X6.0000 Y16.0491
G01 Y132.2000
G01 X6.6000
G00 Z3.0000


(Nr. 4 Ausschnitt: Ausschnitt 29)
G00 X191.0101 Y15.8349 Z3.0000
G00 Z-3.6000
G01 Z-4.1000 F800
G02 X192.7986 Y17.9866 Z-5.6500 I1.9899 J0.1651
G03 X191.0101 Y15.8349 Z-7.2000 I0.2014 J-1.9866
G02 X193.8520 Y17.8059 I1.9899 J0.1651 F2200
G02 X194.1379 Y14.3592 I-0.8520 J-1.8059
G02 X191.0101 Y15.8349 I-1.1379 J1.6408
G00 Z3.0000


(Nr. 5 Ausschnitt: Ausschnitt 30)
G00 X9.8473 Y14.3695 Z3.0000
G00 Z-3.6000
G01 Z-4.1000 F800
G02 X9.3487 Y17.1227 Z-5.6500 I1.1527 J1.6305
G03 X9.8473 Y14.3695 Z-7.2000 I1.6513 J-1.1227
G02 X10.1643 Y17.8135 I1.1527 J1.6305 F2200
G02 X12.9884 Y15.8170 I0.8357 J-1.8135
G02 X9.8473 Y14.3695 I-1.9884 J0.1830
G00 Z3.0000


(Nr. 6 Tasche linear: Ausschnitt 20)
G00 X19.6000 Y24.2000 Z3.0000
G00 Z-3.6000
G01 Z-4.1000 F800
G01 X26.6000 Z-7.6000
G01 X19.6000 Z-11.1000
G01 X49.5806 F2200
G01 X51.3539 Y26.0000
G01 X19.6000
G01 Y27.8000
G01 X52.1670
G01 X52.3997 Y29.6000
G01 X19.6000
G01 Y31.4000
G01 X52.3999
G01 X52.4695 Y33.2000
G01 X19.6000
G01 Y35.0000
G01 X53.4150
G01 X19.6000
G01 Y36.8000
G01 X112.4000
G01 Y35.0000
G01 X68.5896
G01 X69.5278 Y33.2000
G01 X112.4000
G01 Y31.4000
G01 X69.6000
G01 Y29.6000
G01 X112.4000
G01 Y27.8000
G01 X69.8331
G01 X70.6461 Y26.0000
G01 X112.4000
G01 Y24.2000
G01 X72.4193
G00 Z3.0000
G00 X19.6000 Y36.8000
G00 Z-3.6000
G01 Z-11.1000 F800
G01 Y38.6000 F2200
G01 X112.4000
G01 Y40.4000
G01 X19.6000
G01 Y42.2000
G01 X112.4000
G01 Y44.0000
G01 X19.6000
G01 Y45.8000
G01 X112.4000
G01 Y47.6000
G01 X19.6000
G01 Y49.4000
G01 X112.4000
G01 X112.5968 Y51.2000
G01 X19.1716
G01 Y53.0000
G01 X16.8236
G01 X113.2576
G01 X114.5584 Y54.8000
G01 X16.6000
G01 Y56.6000
G01 X117.3001
G01 Y58.4000
G01 X184.8224
G01 X16.6000
G01 X122.6991
G01 Y56.6000
G01 X175.2982
G01 X172.5584
G01 Y54.8000
G01 X125.4440
G01 X126.7416 Y53.0000
G01 X171.2584
G01 X170.5960 Y51.2000
G01 X127.4043
G01 X127.5965 Y49.4000
G01 X170.4000
G01 Y47.6000
G01 X127.5452
G01 X127.5498 Y45.8000
G01 X170.4000
G01 Y44.0000
G01 X127.5545
G01 X127.5592 Y42.2000
G01 X170.4000
G01 Y40.4000
G01 X127.5639
G01 X127.5686 Y38.6000
G01 X170.4000
G01 Y36.8000
G01 X127.5732
G01 X127.5779 Y35.0000
G01 X170.4000
G01 Y33.2000
G01 X127.5826
G01 X127.5873 Y31.4000
G01 X170.4000
G01 Y29.6000
G01 X127.5920
G01 X127.5966 Y27.8000
G01 X170.4000
G01 Y26.0000
G01 X127.6000
G01 Y24.2000
G01 X170.4000
G00 Z3.0000
G00 X180.7018 Y58.4000
G00 Z-3.6000
G01 Z-11.1000 F800
G01 Y56.6000 F2200
G01 X184.4293
G00 Z3.0000
G00 X16.6000 Y58.4000
G00 Z-3.6000
G01 Z-11.1000 F800
G01 Y60.2000 F2200
G01 X185.7806
G01 X187.7095 Y62.0000
G01 X16.6000
G01 Y63.8000
G01 X191.9153
G01 Y65.6000
G01 X16.6000
G01 Y67.4000
G01 X191.9153
G01 Y69.2000
G01 X16.6000
G01 Y71.0000
G01 X191.9153
G01 Y72.8000
G01 X16.6000
G01 Y74.6000
G01 X191.9153
G01 Y76.4000
G01 X16.6000
G01 Y78.2000
G01 X191.9153
G01 Y80.0000
G01 X16.6000
G01 Y81.8000
G01 X191.9153
G01 Y83.6000
G01 X16.6000
G01 Y85.4000
G01 X191.9153
G01 Y87.2000
G01 X16.6000
G01 Y89.0000
G01 X191.9153
G01 Y90.8000
G01 X16.6000
G01 Y92.6000
G01 X191.9153
G01 Y94.4000
G01 X16.6000
G01 X17.4281 Y96.2000
G01 X191.9153
G01 Y98.0000
G01 X19.2684
G01 X19.6000 Y99.8000
G01 X191.9153
G01 Y101.6000
G01 X19.6000
G01 Y103.4000
G01 X191.9153
G01 Y105.2000
G01 X19.6000
G01 Y107.0000
G01 X187.7081
G01 X185.7806 Y108.8000
G01 X19.6000
G01 Y110.6000
G01 X184.8224
G01 X184.4298 Y112.4000
G01 X19.6000
G01 Y114.2000
G01 X184.4000
G01 Y116.0000
G01 X19.6000
G01 Y117.8000
G01 X184.4000
G01 X134.9448
G01 Y119.6000
G01 X19.6000
G01 Y121.4000
G01 X134.4017
G01 X134.1669 Y123.2000
G01 X19.6000
G01 Y125.0000
G01 X133.3539
G01 X131.5807 Y126.8000
G01 X19.6000
G00 Z3.0000
G00 X151.0535 Y117.8000
G00 Z-3.6000
G01 Z-11.1000 F800
G01 Y119.6000 F2200
G01 X184.4000
G01 Y121.4000
G01 X151.5986
G01 X151.8330 Y123.2000
G01 X184.4000
G01 Y125.0000
G01 X152.6461
G01 X154.4194 Y126.8000
G01 X184.4000
G00 Z3.0000
G00 Z-3.6000
G01 Z-11.1000 F800
G01 X185.0000 F2200
G01 Y113.0200
G03 X185.4351 Y110.6688 I6.5756 J0.0008
G03 X191.9353 Y106.5000 I6.1029 J2.3639
G02 X192.5153 Y105.9200 I0.0614 J-0.5186
G01 Y63.0800
G01 X192.5093 Y62.9513
G02 X191.9480 Y62.5003 I-0.5062 J0.0552
G03 X185.0205 Y56.4903 I-0.4184 J-6.5153
G01 X185.0046 Y56.1672
G01 X185.0000 Y56.0000
G01 Y22.5842
G01 Y49.4800
G03 X171.0000 Y49.5000 I-7.0000 J0.0179
G01 Y22.5800
G01 X170.9970 Y22.5130
G01 X170.9870 Y22.5030
G01 X170.9210 Y22.5000
G01 X127.0069 Y22.5143
G01 X127.0020 Y22.5329
G01 X127.0000 Y22.5800
G01 Y26.5078
G01 X126.9425 Y48.6289
G01 X126.9436 Y48.6469
G03 X113.0961 Y50.6446 I-6.9446 J0.8545
G03 X113.0000 Y49.5000 I7.2215 J-1.1823
G01 Y22.5800
G01 X112.9970 Y22.5130
G01 X112.9870 Y22.5030
G01 X112.9200 Y22.5000
G01 X76.0442 Y22.4999
G02 X69.0122 Y29.1076 I-0.0418 J7.0011
G01 X69.0000 Y29.5400
G01 Y32.4800
G03 X66.0000 Y35.5000 I-3.0000 J0.0199
G01 X56.0200
G03 X53.0000 Y32.5000 I-0.0199 J-3.0000
G01 X53.0001 Y29.5442
G02 X45.9600 Y22.5000 I-7.0032 J-0.0409
G01 X19.0800
G01 X19.0130 Y22.5030
G01 X19.0030 Y22.5130
G01 X19.0000 Y22.5800
G01 Y49.4800
G03 X16.3487 Y52.4909 I-3.0237 J0.0102
G02 X16.0047 Y52.9259 I0.1513 J0.4732
G01 X16.0000 Y53.0310
G01 Y95.9690
G01 X16.0047 Y96.0741
G02 X16.5409 Y96.5491 I0.5248 J-0.0523
G03 X19.0000 Y99.5000 I-0.5410 J2.9509
G01 Y128.4200
G01 X19.0030 Y128.4870
G01 X19.0130 Y128.4970
G01 X19.0800 Y128.5000
G01 X127.9558 Y128.5001
G02 X135.0075 Y121.2878 I0.0329 J-7.0213
G03 X138.0000 Y118.5000 I2.9925 J0.2122
G01 X147.9800
G03 X150.9988 Y121.4159 I0.0199 J3.0001
G01 X151.0122 Y121.8924
G02 X158.0400 Y128.5000 I6.9902 J-0.3936
G01 X184.9200
G01 X184.9870 Y128.4970
G01 X184.9970 Y128.4870
G01 X185.0000 Y128.4200
G01 Y126.8000
G01 X184.4000
G00 Z3.0000
G00 X49.5806 Y24.2000
G00 Z-10.6000
G01 Z-11.1000 F800
G01 X45.6806 Z-13.0500
G01 X49.5806 Z-15.0000
G01 X19.6000 F2200
G01 Y26.0000
G01 X51.3539
G01 X52.1670 Y27.8000
G01 X19.6000
G01 Y29.6000
G01 X52.3997
G01 X52.3999 Y31.4000
G01 X19.6000
G01 Y33.2000
G01 X52.4695
G01 X53.4150 Y35.0000
G01 X19.6000
G01 Y36.8000
G01 X112.4000
G01 Y35.0000
G01 X68.5896
G01 X69.5278 Y33.2000
G01 X112.4000
G01 Y31.4000
G01 X69.6000
G01 Y29.6000
G01 X112.4000
G01 Y27.8000
G01 X69.8331
G01 X70.6461 Y26.0000
G01 X112.4000
G01 Y24.2000
G01 X72.4193
G00 Z3.0000
G00 X19.6000 Y36.8000
G00 Z-10.6000
G01 Z-15.0000 F800
G01 Y38.6000 F2200
G01 X112.4000
G01 Y40.4000
G01 X19.6000
G01 Y42.2000
G01 X112.4000
G01 Y44.0000
G01 X19.6000
G01 Y45.8000
G01 X112.4000
G01 Y47.6000
G01 X19.6000
G01 Y49.4000
G01 X112.4000
G01 X112.5968 Y51.2000
G01 X19.1716
G01 Y53.0000
G01 X16.8236
G01 X113.2576
G01 X114.5584 Y54.8000
G01 X16.6000
G01 Y56.6000
G01 X117.3001
G01 Y58.4000
G01 X184.8224
G01 X16.6000
G01 X122.6991
G01 Y56.6000
G01 X175.2982
G01 X172.5584
G01 Y54.8000
G01 X125.4440
G01 X126.7416 Y53.0000
G01 X171.2584
G01 X170.5960 Y51.2000
G01 X127.4043
G01 X127.5965 Y49.4000
G01 X170.4000
G01 Y47.6000
G01 X127.5452
G01 X127.5498 Y45.8000
G01 X170.4000
G01 Y44.0000
G01 X127.5545
G01 X127.5592 Y42.2000
G01 X170.4000
G01 Y40.4000
G01 X127.5639
G01 X127.5686 Y38.6000
G01 X170.4000
G01 Y36.8000
G01 X127.5732
G01 X127.5779 Y35.0000
G01 X170.4000
G01 Y33.2000
G01 X127.5826
G01 X127.5873 Y31.4000
G01 X170.4000
G01 Y29.6000
G01 X127.5920
G01 X127.5966 Y27.8000
G01 X170.4000
G01 Y26.0000
G01 X127.6000
G01 Y24.2000
G01 X170.4000
G00 Z3.0000
G00 X180.7018 Y58.4000
G00 Z-10.6000
G01 Z-15.0000 F800
G01 Y56.6000 F2200
G01 X184.4293
G00 Z3.0000
G00 X16.6000 Y58.4000
G00 Z-10.6000
G01 Z-15.0000 F800
G01 Y60.2000 F2200
G01 X185.7806
G01 X187.7095 Y62.0000
G01 X16.6000
G01 Y63.8000
G01 X191.9153
G01 Y65.6000
G01 X16.6000
G01 Y67.4000
G01 X191.9153
G01 Y69.2000
G01 X16.6000
G01 Y71.0000
G01 X191.9153
G01 Y72.8000
G01 X16.6000
G01 Y74.6000
G01 X191.9153
G01 Y76.4000
G01 X16.6000
G01 Y78.2000
G01 X191.9153
G01 Y80.0000
G01 X16.6000
G01 Y81.8000
G01 X191.9153
G01 Y83.6000
G01 X16.6000
G01 Y85.4000
G01 X191.9153
G01 Y87.2000
G01 X16.6000
G01 Y89.0000
G01 X191.9153
G01 Y90.8000
G01 X16.6000
G01 Y92.6000
G01 X191.9153
G01 Y94.4000
G01 X16.6000
G01 X17.4281 Y96.2000
G01 X191.9153
G01 Y98.0000
G01 X19.2684
G01 X19.6000 Y99.8000
G01 X191.9153
G01 Y101.6000
G01 X19.6000
G01 Y103.4000
G01 X191.9153
G01 Y105.2000
G01 X19.6000
G01 Y107.0000
G01 X187.7081
G01 X185.7806 Y108.8000
G01 X19.6000
G01 Y110.6000
G01 X184.8224
G01 X184.4298 Y112.4000
G01 X19.6000
G01 Y114.2000
G01 X184.4000
G01 Y116.0000
G01 X19.6000
G01 Y117.8000
G01 X184.4000
G01 X134.9448
G01 Y119.6000
G01 X19.6000
G01 Y121.4000
G01 X134.4017
G01 X134.1669 Y123.2000
G01 X19.6000
G01 Y125.0000
G01 X133.3539
G01 X131.5807 Y126.8000
G01 X19.6000
G00 Z3.0000
G00 X151.0535 Y117.8000
G00 Z-10.6000
G01 Z-15.0000 F800
G01 Y119.6000 F2200
G01 X184.4000
G01 Y121.4000
G01 X151.5986
G01 X151.8330 Y123.2000
G01 X184.4000
G01 Y125.0000
G01 X152.6461
G01 X154.4194 Y126.8000
G01 X184.4000
G00 Z3.0000
G00 Z-10.6000
G01 Z-15.0000 F800
G01 X185.0000 F2200
G01 Y113.0200
G03 X185.4351 Y110.6688 I6.5756 J0.0008
G03 X191.9353 Y106.5000 I6.1029 J2.3639
G02 X192.5153 Y105.9200 I0.0614 J-0.5186
G01 Y63.0800
G01 X192.5093 Y62.9513
G02 X191.9480 Y62.5003 I-0.5062 J0.0552
G03 X185.0205 Y56.4903 I-0.4184 J-6.5153
G01 X185.0046 Y56.1672
G01 X185.0000 Y56.0000
G01 Y22.5842
G01 Y49.4800
G03 X171.0000 Y49.5000 I-7.0000 J0.0179
G01 Y22.5800
G01 X170.9970 Y22.5130
G01 X170.9870 Y22.5030
G01 X170.9210 Y22.5000
G01 X127.0069 Y22.5143
G01 X127.0020 Y22.5329
G01 X127.0000 Y22.5800
G01 Y26.5078
G01 X126.9425 Y48.6289
G01 X126.9436 Y48.6469
G03 X113.0961 Y50.6446 I-6.9446 J0.8545
G03 X113.0000 Y49.5000 I7.2215 J-1.1823
G01 Y22.5800
G01 X112.9970 Y22.5130
G01 X112.9870 Y22.5030
G01 X112.9200 Y22.5000
G01 X76.0442 Y22.4999
G02 X69.0122 Y29.1076 I-0.0418 J7.0011
G01 X69.0000 Y29.5400
G01 Y32.4800
G03 X66.0000 Y35.5000 I-3.0000 J0.0199
G01 X56.0200
G03 X53.0000 Y32.5000 I-0.0199 J-3.0000
G01 X53.0001 Y29.5442
G02 X45.9600 Y22.5000 I-7.0032 J-0.0409
G01 X19.0800
G01 X19.0130 Y22.5030
G01 X19.0030 Y22.5130
G01 X19.0000 Y22.5800
G01 Y49.4800
G03 X16.3487 Y52.4909 I-3.0237 J0.0102
G02 X16.0047 Y52.9259 I0.1513 J0.4732
G01 X16.0000 Y53.0310
G01 Y95.9690
G01 X16.0047 Y96.0741
G02 X16.5409 Y96.5491 I0.5248 J-0.0523
G03 X19.0000 Y99.5000 I-0.5410 J2.9509
G01 Y128.4200
G01 X19.0030 Y128.4870
G01 X19.0130 Y128.4970
G01 X19.0800 Y128.5000
G01 X127.9558 Y128.5001
G02 X135.0075 Y121.2878 I0.0329 J-7.0213
G03 X138.0000 Y118.5000 I2.9925 J0.2122
G01 X147.9800
G03 X150.9988 Y121.4159 I0.0199 J3.0001
G01 X151.0122 Y121.8924
G02 X158.0400 Y128.5000 I6.9902 J-0.3936
G01 X184.9200
G01 X184.9870 Y128.4970
G01 X184.9970 Y128.4870
G01 X185.0000 Y128.4200
G01 Y126.8000
G01 X184.4000
G00 Z3.0000


(Nr. 7 Ausschnitt: Ausschnitt 26)
G00 X29.7660 Y57.5622 Z3.0000
G00 Z-14.5000
G01 Z-15.0000 F800
G02 X29.5042 Y57.9874 Z-15.2617 I0.2326 J0.4364
G01 X29.5060 Y58.0487 Z-15.2923
G02 X30.0800 Y58.5000 Z-15.6988 I0.5090 J-0.0567
G01 X31.6825 Z-16.5000
G01 X30.0800 Z-17.3012
G03 X29.5060 Y58.0487 Z-17.7077 I-0.0650 J-0.5080
G01 X29.5042 Y57.9874 Z-17.7383
G03 X29.7660 Y57.5622 Z-18.0000 I0.4944 J0.0112
G02 X29.5042 Y57.9874 I0.2326 J0.4364 F2200
G01 X29.5060 Y58.0487
G02 X30.0800 Y58.5000 I0.5090 J-0.0567
G01 X173.9200
G02 Y57.5000 I0.0713 J-0.5000
G01 X30.0800
G02 X29.7660 Y57.5622 I-0.0495 J0.5737
G00 Z3.0000


(Nr. 8 Ausschnitt: Ausschnitt 25)
G00 X29.8100 Y72.5414 Z3.0000
G00 Z-14.5000
G01 Z-15.0000 F800
G02 X29.5036 Y73.0000 Z-15.2924 I0.1900 J0.4586
G02 X29.5622 Y73.2340 Z-15.4142 I0.4964 J0.0000
G02 X30.0800 Y73.5000 Z-15.7229 I0.4576 J-0.2539
G01 X31.6343 Z-16.5000
G01 X30.0800 Z-17.2771
G03 X29.5622 Y73.2340 Z-17.5858 I-0.0601 J-0.5199
G03 X29.5036 Y73.0000 Z-17.7076 I0.4378 J-0.2340
G03 X29.8100 Y72.5414 Z-18.0000 I0.4964 J0.0000
G02 X29.5036 Y73.0000 I0.1900 J0.4586 F2200
G02 X29.5622 Y73.2340 I0.4964 J0.0000
G02 X30.0800 Y73.5000 I0.4576 J-0.2539
G01 X173.9200
G02 Y72.5000 I0.0713 J-0.5000
G01 X30.0800
G02 X29.8100 Y72.5414 I-0.0425 J0.6236
G00 Z3.0000


(Nr. 9 Ausschnitt: Ausschnitt 24)
G00 X29.8559 Y87.5250 Z3.0000
G00 Z-14.5000
G01 Z-15.0000 F800
G02 X29.5036 Y88.0000 Z-15.3166 I0.1460 J0.4764
G01 X29.5060 Y88.0487 Z-15.3409
G02 X30.0800 Y88.5000 Z-15.7473 I0.5090 J-0.0567
G01 X31.5853 Z-16.5000
G01 X30.0800 Z-17.2527
G03 X29.5060 Y88.0487 Z-17.6591 I-0.0650 J-0.5080
G01 X29.5036 Y88.0000 Z-17.6834
G03 X29.8559 Y87.5250 Z-18.0000 I0.4983 J0.0014
G02 X29.5036 Y88.0000 I0.1460 J0.4764 F2200
G01 X29.5060 Y88.0487
G02 X30.0800 Y88.5000 I0.5090 J-0.0567
G01 X173.9200
G02 Y87.5000 I0.0713 J-0.5000
G01 X30.0800
G01 X29.9513 Y87.5060
G01 X29.9032 Y87.5132
G01 X29.8559 Y87.5250
G00 Z3.0000


(Nr. 10 Ausschnitt: Ausschnitt 23)
G00 X29.8559 Y102.5250 Z3.0000
G00 Z-14.5000
G01 Z-15.0000 F800
G02 X29.5036 Y103.0000 Z-15.3166 I0.1460 J0.4764
G02 X29.5414 Y103.1900 Z-15.4140 I0.4964 J0.0000
G02 X30.0800 Y103.5000 Z-15.7473 I0.4762 J-0.2044
G01 X31.5855 Z-16.5000
G01 X30.0800 Z-17.2527
G03 X29.5414 Y103.1900 Z-17.5860 I-0.0624 J-0.5144
G03 X29.5036 Y103.0000 Z-17.6834 I0.4586 J-0.1900
G03 X29.8559 Y102.5250 Z-18.0000 I0.4983 J0.0014
G02 X29.5036 Y103.0000 I0.1460 J0.4764 F2200
G02 X29.5414 Y103.1900 I0.4964 J0.0000
G02 X30.0800 Y103.5000 I0.4762 J-0.2044
G01 X173.9200
G02 Y102.5000 I0.0713 J-0.5000
G01 X30.0800
G01 X29.9513 Y102.5060
G01 X29.9032 Y102.5132
G01 X29.8559 Y102.5250
G00 Z3.0000


(Nr. 11 Ausschnitt: Ausschnitt 22)
G00 X29.8559 Y117.5250 Z3.0000
G00 Z-14.5000
G01 Z-15.0000 F800
G02 X29.5036 Y118.0000 Z-15.3166 I0.1460 J0.4764
G01 X29.5060 Y118.0487 Z-15.3409
G02 X30.0800 Y118.5000 Z-15.7473 I0.5090 J-0.0567
G01 X31.5853 Z-16.5000
G01 X30.0800 Z-17.2527
G03 X29.5060 Y118.0487 Z-17.6591 I-0.0650 J-0.5080
G01 X29.5036 Y118.0000 Z-17.6834
G03 X29.8559 Y117.5250 Z-18.0000 I0.4983 J0.0014
G02 X29.5036 Y118.0000 I0.1460 J0.4764 F2200
G01 X29.5060 Y118.0487
G02 X30.0800 Y118.5000 I0.5090 J-0.0567
G01 X173.9200
G02 Y117.5000 I0.0713 J-0.5000
G01 X30.0800
G01 X29.9513 Y117.5060
G01 X29.9032 Y117.5132
G01 X29.8559 Y117.5250
G00 Z3.0000


(Nr. 12 Ausschnitt: Ausschnitt 31)
G00 X119.0000 Y22.5000 Z3.0000
G00 Z-3.6000
G01 Z-4.1000 F800
G01 Y28.4000 Z-7.0500
G01 Y22.5000 Z-10.0000
G01 Y49.4310 F2200
G01 X119.0077 Y49.5935
G02 X120.9935 Y49.4199 I0.9923 J-0.0935
G01 X120.9562 Y49.1128
G01 X120.9420 Y48.8133
G01 X121.0000 Y26.4961
G01 Y22.5000
G01 X123.5113 Y21.0944
G01 X124.0168 Y20.8444
G01 X123.5113 Y21.0944
G01 X121.0000 Y22.5000
G01 X119.0000
G01 X115.9522 Y20.9053
G01 X119.0000 Y22.5000
G00 Z3.0000


(Nr. 13 Ausschnitt: Ausschnitt 32)
G00 X177.0159 Y22.5083 Z3.0000
G00 Z-3.6000
G01 Z-4.1000 F800
G01 X177.0000 Y22.5200 Z-4.1098
G01 X176.1978 Y22.1340 Z-4.5550
G01 X175.4838 Y21.7108 Z-4.9700
G01 X174.9812 Y21.4068 Z-5.2637
G01 X173.9631 Y20.8843 Z-5.8359
G01 X174.9812 Y21.4068 Z-6.4081
G01 X175.4838 Y21.7108 Z-6.7018
G01 X176.0829 Y22.0659 Z-7.0500
G01 X175.4838 Y21.7108 Z-7.3982
G01 X174.9812 Y21.4068 Z-7.6919
G01 X173.9631 Y20.8843 Z-8.2641
G01 X174.9812 Y21.4068 Z-8.8363
G01 X175.4838 Y21.7108 Z-9.1300
G01 X176.1978 Y22.1340 Z-9.5450
G01 X177.0000 Y22.5200 Z-9.9902
G01 X177.0159 Y22.5083 Z-10.0000
G01 X177.0000 Y22.5200 F2200
G01 X176.1978 Y22.1340
G01 X175.4838 Y21.7108
G01 X174.9812 Y21.4068
G01 X173.9631 Y20.8843
G01 X174.9812 Y21.4068
G01 X175.4838 Y21.7108
G01 X176.1978 Y22.1340
G01 X177.0000 Y22.5200
G01 X177.0003 Y49.4327
G01 X177.0084 Y49.5977
G02 X178.9997 Y49.4327 I0.9941 J-0.1008
G01 X179.0000 Y22.5110
G01 X179.7390 Y22.1677
G03 X181.9906 Y20.8800 I14.4571 J22.6651
G02 X179.7390 Y22.1677 I12.2055 J23.9529
G01 X179.0000 Y22.5110
G01 X177.0159 Y22.5083
G00 Z3.0000


(Nr. 14 Teil: Teil 7)
G00 X-3.0000 Y69.2400 Z3.0000
G00 Z0.5000
G01 Z0.0000 F800
G01 Y62.2400 Z-3.5000
G01 Y69.2400 Z-7.0000
G01 Y0.0000 F2200
G03 X-2.8660 Y-0.8866 I3.0000 J0.0000
G03 X0.0200 Y-3.0000 I2.8662 J0.8867
G01 X98.2600
G00 Z0.0000
G01 X105.7600
G01 X112.7600 Z-3.5000 F800
G01 X105.7600 Z-7.0000
G01 X204.0000 F2200
G03 X207.0000 Y0.0200 I0.0000 J3.0001
G01 Y37.7039
G00 Z0.0000
G01 Y45.2039
G01 Y52.2039 Z-3.5000 F800
G01 Y45.2039 Z-7.0000
G01 Y69.2600 F2200
G00 Z0.0000
G01 Y76.7600
G01 Y83.7600 Z-3.5000 F800
G01 Y76.7600 Z-7.0000
G01 Y146.0000 F2200
G03 X203.9800 Y149.0000 I-3.0001 J0.0000
G01 X105.7400
G00 Z0.0000
G01 X98.2400
G01 X91.2400 Z-3.5000 F800
G01 X98.2400 Z-7.0000
G01 X0.0000 F2200
G03 X-2.9925 Y146.2122 I0.0000 J-3.0000
G01 X-3.0000 Y145.9800
G01 Y76.7400
G00 Z0.0000
G01 Y69.2400
G00 Z-6.5000
G01 Z-7.0000 F800
G01 Y62.2400 Z-10.5000
G01 Y69.2400 Z-14.0000
G01 Y0.0000 F2200
G03 X-2.8660 Y-0.8866 I3.0000 J0.0000
G03 X0.0200 Y-3.0000 I2.8662 J0.8867
G01 X98.2600
G00 Z0.0000
G01 X105.7600
G00 Z-6.5000
G01 Z-7.0000 F800
G01 X112.7600 Z-10.5000
G01 X105.7600 Z-14.0000
G01 X204.0000 F2200
G03 X207.0000 Y0.0200 I0.0000 J3.0001
G01 Y37.7039
G00 Z0.0000
G01 Y45.2039
G00 Z-6.5000
G01 Z-7.0000 F800
G01 Y52.2039 Z-10.5000
G01 Y45.2039 Z-14.0000
G01 Y69.2600 F2200
G00 Z0.0000
G01 Y76.7600
G00 Z-6.5000
G01 Z-7.0000 F800
G01 Y83.7600 Z-10.5000
G01 Y76.7600 Z-14.0000
G01 Y146.0000 F2200
G03 X203.9800 Y149.0000 I-3.0001 J0.0000
G01 X105.7400
G00 Z0.0000
G01 X98.2400
G00 Z-6.5000
G01 Z-7.0000 F800
G01 X91.2400 Z-10.5000
G01 X98.2400 Z-14.0000
G01 X0.0000 F2200
G03 X-2.9925 Y146.2122 I0.0000 J-3.0000
G01 X-3.0000 Y145.9800
G01 Y76.7400
G00 Z0.0000
G01 Y69.2400
G00 Z-13.5000
G01 Z-14.0000 F800
G01 Y64.7400 Z-16.2500
G01 Y69.2400 Z-18.5000
G01 Y0.0000 F2200
G03 X-2.8660 Y-0.8866 I3.0000 J0.0000
G03 X0.0200 Y-3.0000 I2.8662 J0.8867
G01 X98.2600
G00 Z0.0000
G01 X105.7600
G00 Z-13.5000
G01 Z-14.0000 F800
G01 X110.2600 Z-16.2500
G01 X105.7600 Z-18.5000
G01 X204.0000 F2200
G03 X207.0000 Y0.0200 I0.0000 J3.0001
G01 Y37.7039
G00 Z0.0000
G01 Y45.2039
G00 Z-13.5000
G01 Z-14.0000 F800
G01 Y49.7039 Z-16.2500
G01 Y45.2039 Z-18.5000
G01 Y69.2600 F2200
G00 Z0.0000
G01 Y76.7600
G00 Z-13.5000
G01 Z-14.0000 F800
G01 Y81.2600 Z-16.2500
G01 Y76.7600 Z-18.5000
G01 Y146.0000 F2200
G03 X203.9800 Y149.0000 I-3.0001 J0.0000
G01 X105.7400
G00 Z0.0000
G01 X98.2400
G00 Z-13.5000
G01 Z-14.0000 F800
G01 X93.7400 Z-16.2500
G01 X98.2400 Z-18.5000
G01 X0.0000 F2200
G03 X-2.9925 Y146.2122 I0.0000 J-3.0000
G01 X-3.0000 Y145.9800
G01 Y76.7400
G00 Z0.0000
G01 Y69.2400
G00 Z3.0000


(Nr. 15 Tasche linear: Ausschnitt 33)
G00 X81.2808 Y25.0575 Z3.0000
G00 Z-14.5000
G01 Z-15.0000 F800
G01 X84.2808 Z-16.5000
G01 X81.2808 Z-18.0000
G01 X88.5808 F2200
G01 Y26.8575
G01 X81.2808
G00 Z3.0000
G00 Z-14.5000
G01 Z-18.0000 F800
G01 X80.6808 F2200
G01 Y27.7075
G01 X89.1808
G01 Y24.2075
G01 X80.6808
G01 Y26.8575
G01 X81.2808
G00 Z3.0000
G00 X0.0000 Y0.0000

M05
