(Projekt Vorderseite)
(Erstellt mit Estlcam Version 11 Build 11,116)
(Laufzeit ca. 00:29:19 Stunden)

(Benötigte Werkzeuge:)
(Fräser 6mm)

M03 S24000
G00 Z3.0000


(Nr. 1 Tasche linear: Teil 23)
G00 X-1.8707 Y-1.5000
G00 Z0.5000
G01 Z0.0000 F800 S24000
G01 X1.1293 Z-1.5000
G01 X-1.8707 Z-3.0000
G01 X205.8728 F2200
G01 X206.4000 Y0.3000
G01 X-2.4000
G01 Y2.1000
G01 X206.4000
G01 Y3.9000
G01 X-2.4000
G01 Y5.7000
G01 X206.4000
G01 Y7.5000
G01 X-2.4000
G01 Y9.3000
G01 X206.4000
G01 Y11.1000
G01 X-2.4000
G01 Y12.9000
G01 X206.4000
G01 Y14.7000
G01 X-2.4000
G01 Y16.5000
G01 X206.4000
G01 Y18.3000
G01 X-2.4000
G01 Y20.1000
G01 X206.4000
G01 Y21.9000
G01 X-2.4000
G01 Y23.7000
G01 X206.4000
G01 Y25.5000
G01 X-2.4000
G01 Y27.3000
G01 X206.4000
G01 Y29.1000
G01 X-2.4000
G01 Y30.9000
G01 X206.4000
G01 Y32.7000
G01 X-2.4000
G01 Y34.5000
G01 X206.4000
G01 Y36.3000
G01 X-2.4000
G01 Y38.1000
G01 X206.4000
G01 Y39.9000
G01 X-2.4000
G01 Y41.7000
G01 X206.4000
G01 Y43.5000
G01 X-2.4000
G01 Y45.3000
G01 X206.4000
G01 Y47.1000
G01 X-2.4000
G01 Y48.9000
G01 X206.4000
G01 Y50.7000
G01 X-2.4000
G01 Y52.5000
G01 X206.4000
G01 Y54.3000
G01 X-2.4000
G01 Y56.1000
G01 X206.4000
G01 Y57.9000
G01 X-2.4000
G01 Y59.7000
G01 X206.4000
G01 Y61.5000
G01 X-2.4000
G01 Y63.3000
G01 X206.4000
G01 Y65.1000
G01 X-2.4000
G01 Y66.9000
G01 X206.4000
G01 Y68.7000
G01 X-2.4000
G01 Y70.5000
G01 X206.4000
G01 Y72.3000
G01 X-2.4000
G01 Y74.1000
G01 X206.4000
G01 Y75.9000
G01 X-2.4000
G01 Y77.7000
G01 X206.4000
G01 Y79.5000
G01 X-2.4000
G01 Y81.3000
G01 X206.4000
G01 Y83.1000
G01 X-2.4000
G01 Y84.9000
G01 X206.4000
G01 Y86.7000
G01 X-2.4000
G01 Y88.5000
G01 X206.4000
G01 Y90.3000
G01 X-2.4000
G01 Y92.1000
G01 X206.4000
G01 Y93.9000
G01 X-2.4000
G01 Y95.7000
G01 X206.4000
G01 Y97.5000
G01 X-2.4000
G01 Y99.3000
G01 X206.4000
G01 Y101.1000
G01 X-2.4000
G01 Y102.9000
G01 X206.4000
G01 Y104.7000
G01 X-2.4000
G01 Y106.5000
G01 X206.4000
G01 Y108.3000
G01 X-2.4000
G01 Y110.1000
G01 X206.4000
G01 Y111.9000
G01 X-2.4000
G01 Y113.7000
G01 X206.4000
G01 Y115.5000
G01 X-2.4000
G01 Y117.3000
G01 X206.4000
G01 Y119.1000
G01 X-2.4000
G01 Y120.9000
G01 X206.4000
G01 Y122.7000
G01 X-2.4000
G01 Y124.5000
G01 X206.4000
G01 Y126.3000
G01 X-2.4000
G01 Y128.1000
G01 X206.4000
G01 Y129.9000
G01 X-2.4000
G01 Y131.7000
G01 X206.4000
G01 Y133.5000
G01 X-2.4000
G01 Y135.3000
G01 X206.4000
G01 Y137.1000
G01 X-2.4000
G01 Y138.9000
G01 X206.4000
G01 Y140.7000
G01 X-2.4000
G01 X-1.8728 Y142.5000
G01 X205.8707
G00 Z3.0000
G00 Z0.5000
G01 Z-3.0000 F800
G01 X206.3477 Y142.8627 F2200
G01 X206.2945 Y142.9327
G03 X203.9800 Y144.0000 I-2.2948 J-1.9330
G01 X0.0000
G03 X-2.9925 Y141.2122 I0.0000 J-3.0000
G01 X-3.0000 Y140.9800
G01 Y0.0000
G03 X-2.8660 Y-0.8866 I3.0000 J0.0000
G03 X0.0200 Y-3.0000 I2.8662 J0.8867
G01 X204.0000
G03 X207.0000 Y0.0200 I0.0000 J3.0001
G01 Y141.0000
G03 X206.3477 Y142.8627 I-2.9661 J0.0069
G01 X205.8707 Y142.5000
G00 Z3.0000
G00 X205.8728 Y-1.5000
G00 Z-2.5000
G01 Z-3.0000 F800
G01 X204.8728 Z-3.5000
G01 X205.8728 Z-4.0000
G01 X-1.8707 F2200
G01 X-2.4000 Y0.3000
G01 X206.4000
G01 Y2.1000
G01 X-2.4000
G01 Y3.9000
G01 X206.4000
G01 Y5.7000
G01 X-2.4000
G01 Y7.5000
G01 X206.4000
G01 Y9.3000
G01 X-2.4000
G01 Y11.1000
G01 X206.4000
G01 Y12.9000
G01 X-2.4000
G01 Y14.7000
G01 X206.4000
G01 Y16.5000
G01 X-2.4000
G01 Y18.3000
G01 X206.4000
G01 Y20.1000
G01 X-2.4000
G01 Y21.9000
G01 X206.4000
G01 Y23.7000
G01 X-2.4000
G01 Y25.5000
G01 X206.4000
G01 Y27.3000
G01 X-2.4000
G01 Y29.1000
G01 X206.4000
G01 Y30.9000
G01 X-2.4000
G01 Y32.7000
G01 X206.4000
G01 Y34.5000
G01 X-2.4000
G01 Y36.3000
G01 X206.4000
G01 Y38.1000
G01 X-2.4000
G01 Y39.9000
G01 X206.4000
G01 Y41.7000
G01 X-2.4000
G01 Y43.5000
G01 X206.4000
G01 Y45.3000
G01 X-2.4000
G01 Y47.1000
G01 X206.4000
G01 Y48.9000
G01 X-2.4000
G01 Y50.7000
G01 X206.4000
G01 Y52.5000
G01 X-2.4000
G01 Y54.3000
G01 X206.4000
G01 Y56.1000
G01 X-2.4000
G01 Y57.9000
G01 X206.4000
G01 Y59.7000
G01 X-2.4000
G01 Y61.5000
G01 X206.4000
G01 Y63.3000
G01 X-2.4000
G01 Y65.1000
G01 X206.4000
G01 Y66.9000
G01 X-2.4000
G01 Y68.7000
G01 X206.4000
G01 Y70.5000
G01 X-2.4000
G01 Y72.3000
G01 X206.4000
G01 Y74.1000
G01 X-2.4000
G01 Y75.9000
G01 X206.4000
G01 Y77.7000
G01 X-2.4000
G01 Y79.5000
G01 X206.4000
G01 Y81.3000
G01 X-2.4000
G01 Y83.1000
G01 X206.4000
G01 Y84.9000
G01 X-2.4000
G01 Y86.7000
G01 X206.4000
G01 Y88.5000
G01 X-2.4000
G01 Y90.3000
G01 X206.4000
G01 Y92.1000
G01 X-2.4000
G01 Y93.9000
G01 X206.4000
G01 Y95.7000
G01 X-2.4000
G01 Y97.5000
G01 X206.4000
G01 Y99.3000
G01 X-2.4000
G01 Y101.1000
G01 X206.4000
G01 Y102.9000
G01 X-2.4000
G01 Y104.7000
G01 X206.4000
G01 Y106.5000
G01 X-2.4000
G01 Y108.3000
G01 X206.4000
G01 Y110.1000
G01 X-2.4000
G01 Y111.9000
G01 X206.4000
G01 Y113.7000
G01 X-2.4000
G01 Y115.5000
G01 X206.4000
G01 Y117.3000
G01 X-2.4000
G01 Y119.1000
G01 X206.4000
G01 Y120.9000
G01 X-2.4000
G01 Y122.7000
G01 X206.4000
G01 Y124.5000
G01 X-2.4000
G01 Y126.3000
G01 X206.4000
G01 Y128.1000
G01 X-2.4000
G01 Y129.9000
G01 X206.4000
G01 Y131.7000
G01 X-2.4000
G01 Y133.5000
G01 X206.4000
G01 Y135.3000
G01 X-2.4000
G01 Y137.1000
G01 X206.4000
G01 Y138.9000
G01 X-2.4000
G01 Y140.7000
G01 X206.4000
G01 X205.8707 Y142.5000
G01 X-1.8728
G00 Z3.0000
G00 Z-2.5000
G01 Z-4.0000 F800
G01 X-2.3230 Y142.8955 F2200
G01 X-2.3500 Y142.8648
G03 X-2.9925 Y141.2122 I2.3500 J-1.8648
G01 X-3.0000 Y140.9800
G01 Y0.0000
G03 X-2.8660 Y-0.8866 I3.0000 J0.0000
G03 X0.0200 Y-3.0000 I2.8662 J0.8867
G01 X204.0000
G03 X207.0000 Y0.0200 I0.0000 J3.0001
G01 Y141.0000
G03 X203.9800 Y144.0000 I-3.0001 J0.0000
G01 X0.0000
G03 X-2.3230 Y142.8955 I-0.0026 J-2.9897
G01 X-1.8728 Y142.5000
G00 Z3.0000


(Nr. 2 Ausschnitt: Ausschnitt 21)
G00 X98.2821 Y28.0003 Z3.0000
G00 Z-3.5000
G01 Z-4.0000 F800
G01 X95.2821 Z-5.5000
G01 X98.2821 Z-7.0000
G01 X28.0800 Y28.0000 F2200
G01 X28.0130 Y28.0030
G01 X28.0030 Y28.0130
G01 X28.0000 Y28.0800
G01 Y66.7500
G01 Y74.2500
G01 Y112.9200
G01 X28.0030 Y112.9870
G01 X28.0130 Y112.9970
G01 X28.0800 Y113.0000
G01 X98.2679
G01 X105.7679
G01 X175.9558 Y113.0001
G02 X176.0000 Y112.9600 I0.0140 J-0.0289
G01 Y74.2521
G01 Y66.7521
G01 X176.0001 Y28.0442
G01 X175.9993 Y28.0159
G01 X175.9841 Y28.0007
G01 X105.7821 Y28.0004
G01 X98.2821 Y28.0003
G01 X95.2821 Z-8.5000 F800
G01 X98.2821 Z-10.0000
G01 X28.0800 Y28.0000 F2200
G01 X28.0130 Y28.0030
G01 X28.0030 Y28.0130
G01 X28.0000 Y28.0800
G01 Y66.7500
G01 Y74.2500
G01 Y112.9200
G01 X28.0030 Y112.9870
G01 X28.0130 Y112.9970
G01 X28.0800 Y113.0000
G01 X98.2679
G01 X105.7679
G01 X175.9558 Y113.0001
G02 X176.0000 Y112.9600 I0.0140 J-0.0289
G01 Y74.2521
G01 Y66.7521
G01 X176.0001 Y28.0442
G01 X175.9993 Y28.0159
G01 X175.9841 Y28.0007
G01 X105.7821 Y28.0004
G01 X98.2821 Y28.0003
G01 X95.2821 Z-11.5000 F800
G01 X98.2821 Z-13.0000
G01 X28.0800 Y28.0000 F2200
G01 X28.0130 Y28.0030
G01 X28.0030 Y28.0130
G01 X28.0000 Y28.0800
G01 Y66.7500
G01 Y74.2500
G01 Y112.9200
G01 X28.0030 Y112.9870
G01 X28.0130 Y112.9970
G01 X28.0800 Y113.0000
G01 X98.2679
G01 X105.7679
G01 X175.9558 Y113.0001
G02 X176.0000 Y112.9600 I0.0140 J-0.0289
G01 Y74.2521
G01 Y66.7521
G01 X176.0001 Y28.0442
G01 X175.9993 Y28.0159
G01 X175.9841 Y28.0007
G01 X105.7821 Y28.0004
G01 X98.2821 Y28.0003
G01 X95.2821 Z-14.5000 F800
G01 X98.2821 Z-16.0000
G01 X28.0800 Y28.0000 F2200
G01 X28.0130 Y28.0030
G01 X28.0030 Y28.0130
G01 X28.0000 Y28.0800
G01 Y66.7500
G00 Z-13.5000
G01 Y74.2500
G01 Z-13.0000 F800
G01 Y77.2500 Z-14.5000
G01 Y74.2500 Z-16.0000
G01 Y112.9200 F2200
G01 X28.0030 Y112.9870
G01 X28.0130 Y112.9970
G01 X28.0800 Y113.0000
G01 X98.2679
G00 Z-13.5000
G01 X105.7679
G01 Z-13.0000 F800
G01 X108.7679 Z-14.5000
G01 X105.7679 Z-16.0000
G01 X175.9558 Y113.0001 F2200
G02 X176.0000 Y112.9600 I0.0140 J-0.0289
G01 Y74.2521
G00 Z-13.5000
G01 Y66.7521
G01 Z-13.0000 F800
G01 Y63.7521 Z-14.5000
G01 Y66.7521 Z-16.0000
G01 X176.0001 Y28.0442 F2200
G01 X175.9993 Y28.0159
G01 X175.9841 Y28.0007
G01 X105.7821 Y28.0004
G00 Z-13.5000
G01 X98.2821 Y28.0003
G00 Z-15.5000
G01 Z-16.0000 F800
G01 X95.7821 Z-17.2500
G01 X98.2821 Z-18.5000
G01 X28.0800 Y28.0000 F2200
G01 X28.0130 Y28.0030
G01 X28.0030 Y28.0130
G01 X28.0000 Y28.0800
G01 Y66.7500
G00 Z-13.5000
G01 Y74.2500
G00 Z-15.5000
G01 Z-16.0000 F800
G01 Y76.7500 Z-17.2500
G01 Y74.2500 Z-18.5000
G01 Y112.9200 F2200
G01 X28.0030 Y112.9870
G01 X28.0130 Y112.9970
G01 X28.0800 Y113.0000
G01 X98.2679
G00 Z-13.5000
G01 X105.7679
G00 Z-15.5000
G01 Z-16.0000 F800
G01 X108.2679 Z-17.2500
G01 X105.7679 Z-18.5000
G01 X175.9558 Y113.0001 F2200
G02 X176.0000 Y112.9600 I0.0140 J-0.0289
G01 Y74.2521
G00 Z-13.5000
G01 Y66.7521
G00 Z-15.5000
G01 Z-16.0000 F800
G01 Y64.2521 Z-17.2500
G01 Y66.7521 Z-18.5000
G01 X176.0001 Y28.0442 F2200
G01 X175.9993 Y28.0159
G01 X175.9841 Y28.0007
G01 X105.7821 Y28.0004
G00 Z-13.5000
G01 X98.2821 Y28.0003
G00 Z3.0000


(Nr. 3 Tasche linear: Ausschnitt 19)
G00 X19.6000 Y19.2000 Z3.0000
G00 Z-3.5000
G01 Z-4.0000 F800
G01 X22.6000 Z-5.5000
G01 X19.6000 Z-7.0000
G01 X184.4000 F2200
G01 Y21.0000
G01 X19.6000
G01 Y22.8000
G01 X23.9408
G00 Z3.0000
G00 X180.0626 Y21.0000
G00 Z-3.5000
G01 Z-7.0000 F800
G01 Y22.8000 F2200
G01 X184.4000
G00 Z3.0000
G00 X182.6000 Y48.0000
G00 Z-3.5000
G01 Z-4.0000 F800
G01 X185.6000 Z-5.5000
G01 X182.6000 Z-7.0000
G01 X187.1722 F2200
G01 X187.4000 Y49.8000
G01 X182.6000
G01 Y51.6000
G01 X187.4000
G01 Y53.4000
G01 X182.6000
G01 Y55.2000
G01 X187.4000
G01 Y57.0000
G01 X182.6000
G01 Y58.8000
G01 X187.4000
G01 Y60.6000
G01 X182.6000
G01 Y62.4000
G01 X187.4000
G01 Y64.2000
G01 X182.6000
G01 Y66.0000
G01 X187.4000
G01 Y67.8000
G01 X182.6000
G01 Y69.6000
G01 X187.4000
G01 Y71.4000
G01 X182.6000
G01 Y73.2000
G01 X187.4000
G01 Y75.0000
G01 X182.6000
G01 Y76.8000
G01 X187.4000
G01 Y78.6000
G01 X182.6000
G01 Y80.4000
G01 X187.4000
G01 Y82.2000
G01 X182.6000
G01 Y84.0000
G01 X187.4000
G01 Y85.8000
G01 X182.6000
G01 Y87.6000
G01 X187.4000
G01 Y89.4000
G01 X182.6000
G01 Y91.2000
G01 X186.5688
G00 Z3.0000
G00 X21.4000 Y55.2000
G00 Z-3.5000
G01 Z-4.0000 F800
G01 X18.4000 Z-5.5000
G01 X21.4000 Z-7.0000
G01 X18.2194 F2200
G01 X16.2919 Y57.0000
G01 X21.4000
G01 Y58.8000
G01 X8.6000
G01 Y60.6000
G01 X21.4000
G01 Y62.4000
G01 X8.6000
G01 Y64.2000
G01 X21.4000
G01 Y66.0000
G01 X8.6000
G01 Y67.8000
G01 X21.4000
G01 Y69.6000
G01 X8.6000
G01 Y71.4000
G01 X21.4000
G01 Y73.2000
G01 X8.6000
G01 Y75.0000
G01 X21.4000
G01 Y76.8000
G01 X8.6000
G01 Y78.6000
G01 X21.4000
G01 Y80.4000
G01 X8.6000
G01 Y82.2000
G01 X21.4000
G01 Y84.0000
G01 X8.6000
G01 Y85.8000
G01 X21.4000
G01 Y87.6000
G01 X8.6000
G01 Y89.4000
G01 X21.4000
G01 Y91.2000
G01 X8.6000
G01 Y93.0000
G01 X21.4000
G01 Y94.8000
G01 X8.6000
G01 Y96.6000
G01 X21.4000
G01 Y98.4000
G01 X8.6000
G01 Y100.2000
G01 X21.4000
G01 Y102.0000
G01 X16.2905
G01 X18.2194 Y103.8000
G01 X21.4000
G00 Z3.0000
G00 X19.6000 Y118.2000
G00 Z-3.5000
G01 Z-4.0000 F800
G01 X22.6000 Z-5.5000
G01 X19.6000 Z-7.0000
G01 X23.9395 F2200
G01 X19.6000
G01 Y120.0000
G01 X184.4000
G01 Y118.2000
G01 X180.0620
G00 Z3.0000
G00 X184.4000 Y120.0000
G00 Z-3.5000
G01 Z-7.0000 F800
G01 Y121.8000 F2200
G01 X19.6000
G00 Z3.0000
G00 X23.8640 Y118.2000
G00 Z-3.5000
G01 Z-7.0000 F800
G01 Y117.3442 F2200
G03 X22.0036 Y113.1472 I4.1360 J-4.3442
G01 X22.0000 Y112.9800
G01 Y28.0000
G03 X28.0200 Y22.0000 I6.0055 J0.0055
G01 X176.0000
G03 X182.0000 Y28.0200 I-0.0020 J6.0021
G01 Y113.0000
G03 X175.9800 Y119.0000 I-6.0021 J-0.0020
G01 X28.0000
G03 X23.8640 Y117.3442 I0.0071 J-6.0113
G01 Y118.2000
G00 Z3.0000
G00 X19.6000
G00 Z-3.5000
G01 Z-7.0000 F800
G01 X19.0000 F2200
G01 Y123.4200
G01 X19.0030 Y123.4870
G01 X19.0130 Y123.4970
G01 X19.0800 Y123.5000
G01 X184.9200
G01 X184.9870 Y123.4970
G01 X184.9970 Y123.4870
G01 X185.0000 Y123.4200
G01 Y94.5200
G01 X185.0103 Y94.2518
G03 X187.6629 Y91.5052 I3.0237 J0.2660
G02 X188.0000 Y90.9690 I-0.1746 J-0.4839
G01 Y48.0310
G02 X187.9774 Y47.8269 I-0.6619 J-0.0302
G02 X187.4591 Y47.4509 I-0.5118 J0.1604
G03 X185.0000 Y44.5000 I0.5410 J-2.9509
G01 Y17.5800
G01 X184.9970 Y17.5130
G01 X184.9870 Y17.5030
G01 X184.9200 Y17.5000
G01 X19.0800
G01 X19.0130 Y17.5030
G01 X19.0030 Y17.5130
G01 X19.0000 Y17.5800
G01 Y50.9800
G03 X12.5000 Y57.5000 I-6.5047 J0.0153
G01 X8.5800
G02 X8.0060 Y57.9513 I-0.0654 J0.5075
G01 X8.0000 Y58.0800
G01 Y100.9200
G01 X8.0060 Y101.0487
G02 X8.5800 Y101.5000 I0.5090 J-0.0567
G01 X12.4800
G03 X19.0000 Y108.0000 I0.0153 J6.5047
G01 Y118.2000
G01 X19.6000
G00 Z3.0000
G00 Y19.2000
G00 Z-6.5000
G01 Z-7.0000 F800
G01 X22.6000 Z-8.5000
G01 X19.6000 Z-10.0000
G01 X184.4000 F2200
G01 Y21.0000
G01 X19.6000
G01 Y22.8000
G01 X23.9408
G00 Z3.0000
G00 X180.0626 Y21.0000
G00 Z-6.5000
G01 Z-10.0000 F800
G01 Y22.8000 F2200
G01 X184.4000
G00 Z3.0000
G00 X182.6000 Y48.0000
G00 Z-6.5000
G01 Z-7.0000 F800
G01 X185.6000 Z-8.5000
G01 X182.6000 Z-10.0000
G01 X187.1722 F2200
G01 X187.4000 Y49.8000
G01 X182.6000
G01 Y51.6000
G01 X187.4000
G01 Y53.4000
G01 X182.6000
G01 Y55.2000
G01 X187.4000
G01 Y57.0000
G01 X182.6000
G01 Y58.8000
G01 X187.4000
G01 Y60.6000
G01 X182.6000
G01 Y62.4000
G01 X187.4000
G01 Y64.2000
G01 X182.6000
G01 Y66.0000
G01 X187.4000
G01 Y67.8000
G01 X182.6000
G01 Y69.6000
G01 X187.4000
G01 Y71.4000
G01 X182.6000
G01 Y73.2000
G01 X187.4000
G01 Y75.0000
G01 X182.6000
G01 Y76.8000
G01 X187.4000
G01 Y78.6000
G01 X182.6000
G01 Y80.4000
G01 X187.4000
G01 Y82.2000
G01 X182.6000
G01 Y84.0000
G01 X187.4000
G01 Y85.8000
G01 X182.6000
G01 Y87.6000
G01 X187.4000
G01 Y89.4000
G01 X182.6000
G01 Y91.2000
G01 X186.5688
G00 Z3.0000
G00 X21.4000 Y55.2000
G00 Z-6.5000
G01 Z-7.0000 F800
G01 X18.4000 Z-8.5000
G01 X21.4000 Z-10.0000
G01 X18.2194 F2200
G01 X16.2919 Y57.0000
G01 X21.4000
G01 Y58.8000
G01 X8.6000
G01 Y60.6000
G01 X21.4000
G01 Y62.4000
G01 X8.6000
G01 Y64.2000
G01 X21.4000
G01 Y66.0000
G01 X8.6000
G01 Y67.8000
G01 X21.4000
G01 Y69.6000
G01 X8.6000
G01 Y71.4000
G01 X21.4000
G01 Y73.2000
G01 X8.6000
G01 Y75.0000
G01 X21.4000
G01 Y76.8000
G01 X8.6000
G01 Y78.6000
G01 X21.4000
G01 Y80.4000
G01 X8.6000
G01 Y82.2000
G01 X21.4000
G01 Y84.0000
G01 X8.6000
G01 Y85.8000
G01 X21.4000
G01 Y87.6000
G01 X8.6000
G01 Y89.4000
G01 X21.4000
G01 Y91.2000
G01 X8.6000
G01 Y93.0000
G01 X21.4000
G01 Y94.8000
G01 X8.6000
G01 Y96.6000
G01 X21.4000
G01 Y98.4000
G01 X8.6000
G01 Y100.2000
G01 X21.4000
G01 Y102.0000
G01 X16.2905
G01 X18.2194 Y103.8000
G01 X21.4000
G00 Z3.0000
G00 X19.6000 Y118.2000
G00 Z-6.5000
G01 Z-7.0000 F800
G01 X22.6000 Z-8.5000
G01 X19.6000 Z-10.0000
G01 X23.9395 F2200
G01 X19.6000
G01 Y120.0000
G01 X184.4000
G01 Y118.2000
G01 X180.0620
G00 Z3.0000
G00 X184.4000 Y120.0000
G00 Z-6.5000
G01 Z-10.0000 F800
G01 Y121.8000 F2200
G01 X19.6000
G00 Z3.0000
G00 X23.8640 Y118.2000
G00 Z-6.5000
G01 Z-10.0000 F800
G01 Y117.3442 F2200
G03 X22.0036 Y113.1472 I4.1360 J-4.3442
G01 X22.0000 Y112.9800
G01 Y28.0000
G03 X28.0200 Y22.0000 I6.0055 J0.0055
G01 X176.0000
G03 X182.0000 Y28.0200 I-0.0020 J6.0021
G01 Y113.0000
G03 X175.9800 Y119.0000 I-6.0021 J-0.0020
G01 X28.0000
G03 X23.8640 Y117.3442 I0.0071 J-6.0113
G01 Y118.2000
G00 Z3.0000
G00 X19.6000
G00 Z-6.5000
G01 Z-10.0000 F800
G01 X19.0000 F2200
G01 Y123.4200
G01 X19.0030 Y123.4870
G01 X19.0130 Y123.4970
G01 X19.0800 Y123.5000
G01 X184.9200
G01 X184.9870 Y123.4970
G01 X184.9970 Y123.4870
G01 X185.0000 Y123.4200
G01 Y94.5200
G01 X185.0103 Y94.2518
G03 X187.6629 Y91.5052 I3.0237 J0.2660
G02 X188.0000 Y90.9690 I-0.1746 J-0.4839
G01 Y48.0310
G02 X187.9774 Y47.8269 I-0.6619 J-0.0302
G02 X187.4591 Y47.4509 I-0.5118 J0.1604
G03 X185.0000 Y44.5000 I0.5410 J-2.9509
G01 Y17.5800
G01 X184.9970 Y17.5130
G01 X184.9870 Y17.5030
G01 X184.9200 Y17.5000
G01 X19.0800
G01 X19.0130 Y17.5030
G01 X19.0030 Y17.5130
G01 X19.0000 Y17.5800
G01 Y50.9800
G03 X12.5000 Y57.5000 I-6.5047 J0.0153
G01 X8.5800
G02 X8.0060 Y57.9513 I-0.0654 J0.5075
G01 X8.0000 Y58.0800
G01 Y100.9200
G01 X8.0060 Y101.0487
G02 X8.5800 Y101.5000 I0.5090 J-0.0567
G01 X12.4800
G03 X19.0000 Y108.0000 I0.0153 J6.5047
G01 Y118.2000
G01 X19.6000
G00 Z3.0000
G00 Y19.2000
G00 Z-9.5000
G01 Z-10.0000 F800
G01 X22.6000 Z-11.5000
G01 X19.6000 Z-13.0000
G01 X184.4000 F2200
G01 Y21.0000
G01 X19.6000
G01 Y22.8000
G01 X23.9408
G00 Z3.0000
G00 X180.0626 Y21.0000
G00 Z-9.5000
G01 Z-13.0000 F800
G01 Y22.8000 F2200
G01 X184.4000
G00 Z3.0000
G00 X182.6000 Y48.0000
G00 Z-9.5000
G01 Z-10.0000 F800
G01 X185.6000 Z-11.5000
G01 X182.6000 Z-13.0000
G01 X187.1722 F2200
G01 X187.4000 Y49.8000
G01 X182.6000
G01 Y51.6000
G01 X187.4000
G01 Y53.4000
G01 X182.6000
G01 Y55.2000
G01 X187.4000
G01 Y57.0000
G01 X182.6000
G01 Y58.8000
G01 X187.4000
G01 Y60.6000
G01 X182.6000
G01 Y62.4000
G01 X187.4000
G01 Y64.2000
G01 X182.6000
G01 Y66.0000
G01 X187.4000
G01 Y67.8000
G01 X182.6000
G01 Y69.6000
G01 X187.4000
G01 Y71.4000
G01 X182.6000
G01 Y73.2000
G01 X187.4000
G01 Y75.0000
G01 X182.6000
G01 Y76.8000
G01 X187.4000
G01 Y78.6000
G01 X182.6000
G01 Y80.4000
G01 X187.4000
G01 Y82.2000
G01 X182.6000
G01 Y84.0000
G01 X187.4000
G01 Y85.8000
G01 X182.6000
G01 Y87.6000
G01 X187.4000
G01 Y89.4000
G01 X182.6000
G01 Y91.2000
G01 X186.5688
G00 Z3.0000
G00 X21.4000 Y55.2000
G00 Z-9.5000
G01 Z-10.0000 F800
G01 X18.4000 Z-11.5000
G01 X21.4000 Z-13.0000
G01 X18.2194 F2200
G01 X16.2919 Y57.0000
G01 X21.4000
G01 Y58.8000
G01 X8.6000
G01 Y60.6000
G01 X21.4000
G01 Y62.4000
G01 X8.6000
G01 Y64.2000
G01 X21.4000
G01 Y66.0000
G01 X8.6000
G01 Y67.8000
G01 X21.4000
G01 Y69.6000
G01 X8.6000
G01 Y71.4000
G01 X21.4000
G01 Y73.2000
G01 X8.6000
G01 Y75.0000
G01 X21.4000
G01 Y76.8000
G01 X8.6000
G01 Y78.6000
G01 X21.4000
G01 Y80.4000
G01 X8.6000
G01 Y82.2000
G01 X21.4000
G01 Y84.0000
G01 X8.6000
G01 Y85.8000
G01 X21.4000
G01 Y87.6000
G01 X8.6000
G01 Y89.4000
G01 X21.4000
G01 Y91.2000
G01 X8.6000
G01 Y93.0000
G01 X21.4000
G01 Y94.8000
G01 X8.6000
G01 Y96.6000
G01 X21.4000
G01 Y98.4000
G01 X8.6000
G01 Y100.2000
G01 X21.4000
G01 Y102.0000
G01 X16.2905
G01 X18.2194 Y103.8000
G01 X21.4000
G00 Z3.0000
G00 X19.6000 Y118.2000
G00 Z-9.5000
G01 Z-10.0000 F800
G01 X22.6000 Z-11.5000
G01 X19.6000 Z-13.0000
G01 X23.9395 F2200
G01 X19.6000
G01 Y120.0000
G01 X184.4000
G01 Y118.2000
G01 X180.0620
G00 Z3.0000
G00 X184.4000 Y120.0000
G00 Z-9.5000
G01 Z-13.0000 F800
G01 Y121.8000 F2200
G01 X19.6000
G00 Z3.0000
G00 X23.8640 Y118.2000
G00 Z-9.5000
G01 Z-13.0000 F800
G01 Y117.3442 F2200
G03 X22.0036 Y113.1472 I4.1360 J-4.3442
G01 X22.0000 Y112.9800
G01 Y28.0000
G03 X28.0200 Y22.0000 I6.0055 J0.0055
G01 X176.0000
G03 X182.0000 Y28.0200 I-0.0020 J6.0021
G01 Y113.0000
G03 X175.9800 Y119.0000 I-6.0021 J-0.0020
G01 X28.0000
G03 X23.8640 Y117.3442 I0.0071 J-6.0113
G01 Y118.2000
G00 Z3.0000
G00 X19.6000
G00 Z-9.5000
G01 Z-13.0000 F800
G01 X19.0000 F2200
G01 Y123.4200
G01 X19.0030 Y123.4870
G01 X19.0130 Y123.4970
G01 X19.0800 Y123.5000
G01 X184.9200
G01 X184.9870 Y123.4970
G01 X184.9970 Y123.4870
G01 X185.0000 Y123.4200
G01 Y94.5200
G01 X185.0103 Y94.2518
G03 X187.6629 Y91.5052 I3.0237 J0.2660
G02 X188.0000 Y90.9690 I-0.1746 J-0.4839
G01 Y48.0310
G02 X187.9774 Y47.8269 I-0.6619 J-0.0302
G02 X187.4591 Y47.4509 I-0.5118 J0.1604
G03 X185.0000 Y44.5000 I0.5410 J-2.9509
G01 Y17.5800
G01 X184.9970 Y17.5130
G01 X184.9870 Y17.5030
G01 X184.9200 Y17.5000
G01 X19.0800
G01 X19.0130 Y17.5030
G01 X19.0030 Y17.5130
G01 X19.0000 Y17.5800
G01 Y50.9800
G03 X12.5000 Y57.5000 I-6.5047 J0.0153
G01 X8.5800
G02 X8.0060 Y57.9513 I-0.0654 J0.5075
G01 X8.0000 Y58.0800
G01 Y100.9200
G01 X8.0060 Y101.0487
G02 X8.5800 Y101.5000 I0.5090 J-0.0567
G01 X12.4800
G03 X19.0000 Y108.0000 I0.0153 J6.5047
G01 Y118.2000
G01 X19.6000
G00 Z3.0000
G00 Y19.2000
G00 Z-12.5000
G01 Z-13.0000 F800
G01 X20.6000 Z-13.5000
G01 X19.6000 Z-14.0000
G01 X184.4000 F2200
G01 Y21.0000
G01 X19.6000
G01 Y22.8000
G01 X23.9408
G00 Z3.0000
G00 X180.0626 Y21.0000
G00 Z-12.5000
G01 Z-14.0000 F800
G01 Y22.8000 F2200
G01 X184.4000
G00 Z3.0000
G00 X182.6000 Y48.0000
G00 Z-12.5000
G01 Z-13.0000 F800
G01 X183.6000 Z-13.5000
G01 X182.6000 Z-14.0000
G01 X187.1722 F2200
G01 X187.4000 Y49.8000
G01 X182.6000
G01 Y51.6000
G01 X187.4000
G01 Y53.4000
G01 X182.6000
G01 Y55.2000
G01 X187.4000
G01 Y57.0000
G01 X182.6000
G01 Y58.8000
G01 X187.4000
G01 Y60.6000
G01 X182.6000
G01 Y62.4000
G01 X187.4000
G01 Y64.2000
G01 X182.6000
G01 Y66.0000
G01 X187.4000
G01 Y67.8000
G01 X182.6000
G01 Y69.6000
G01 X187.4000
G01 Y71.4000
G01 X182.6000
G01 Y73.2000
G01 X187.4000
G01 Y75.0000
G01 X182.6000
G01 Y76.8000
G01 X187.4000
G01 Y78.6000
G01 X182.6000
G01 Y80.4000
G01 X187.4000
G01 Y82.2000
G01 X182.6000
G01 Y84.0000
G01 X187.4000
G01 Y85.8000
G01 X182.6000
G01 Y87.6000
G01 X187.4000
G01 Y89.4000
G01 X182.6000
G01 Y91.2000
G01 X186.5688
G00 Z3.0000
G00 X21.4000 Y55.2000
G00 Z-12.5000
G01 Z-13.0000 F800
G01 X20.4000 Z-13.5000
G01 X21.4000 Z-14.0000
G01 X18.2194 F2200
G01 X16.2919 Y57.0000
G01 X21.4000
G01 Y58.8000
G01 X8.6000
G01 Y60.6000
G01 X21.4000
G01 Y62.4000
G01 X8.6000
G01 Y64.2000
G01 X21.4000
G01 Y66.0000
G01 X8.6000
G01 Y67.8000
G01 X21.4000
G01 Y69.6000
G01 X8.6000
G01 Y71.4000
G01 X21.4000
G01 Y73.2000
G01 X8.6000
G01 Y75.0000
G01 X21.4000
G01 Y76.8000
G01 X8.6000
G01 Y78.6000
G01 X21.4000
G01 Y80.4000
G01 X8.6000
G01 Y82.2000
G01 X21.4000
G01 Y84.0000
G01 X8.6000
G01 Y85.8000
G01 X21.4000
G01 Y87.6000
G01 X8.6000
G01 Y89.4000
G01 X21.4000
G01 Y91.2000
G01 X8.6000
G01 Y93.0000
G01 X21.4000
G01 Y94.8000
G01 X8.6000
G01 Y96.6000
G01 X21.4000
G01 Y98.4000
G01 X8.6000
G01 Y100.2000
G01 X21.4000
G01 Y102.0000
G01 X16.2905
G01 X18.2194 Y103.8000
G01 X21.4000
G00 Z3.0000
G00 X19.6000 Y118.2000
G00 Z-12.5000
G01 Z-13.0000 F800
G01 X20.6000 Z-13.5000
G01 X19.6000 Z-14.0000
G01 X23.9395 F2200
G01 X19.6000
G01 Y120.0000
G01 X184.4000
G01 Y118.2000
G01 X180.0620
G00 Z3.0000
G00 X184.4000 Y120.0000
G00 Z-12.5000
G01 Z-14.0000 F800
G01 Y121.8000 F2200
G01 X19.6000
G00 Z3.0000
G00 X23.8640 Y118.2000
G00 Z-12.5000
G01 Z-14.0000 F800
G01 Y117.3442 F2200
G03 X22.0036 Y113.1472 I4.1360 J-4.3442
G01 X22.0000 Y112.9800
G01 Y28.0000
G03 X28.0200 Y22.0000 I6.0055 J0.0055
G01 X176.0000
G03 X182.0000 Y28.0200 I-0.0020 J6.0021
G01 Y113.0000
G03 X175.9800 Y119.0000 I-6.0021 J-0.0020
G01 X28.0000
G03 X23.8640 Y117.3442 I0.0071 J-6.0113
G01 Y118.2000
G00 Z3.0000
G00 X19.6000
G00 Z-12.5000
G01 Z-14.0000 F800
G01 X19.0000 F2200
G01 Y123.4200
G01 X19.0030 Y123.4870
G01 X19.0130 Y123.4970
G01 X19.0800 Y123.5000
G01 X184.9200
G01 X184.9870 Y123.4970
G01 X184.9970 Y123.4870
G01 X185.0000 Y123.4200
G01 Y94.5200
G01 X185.0103 Y94.2518
G03 X187.6629 Y91.5052 I3.0237 J0.2660
G02 X188.0000 Y90.9690 I-0.1746 J-0.4839
G01 Y48.0310
G02 X187.9774 Y47.8269 I-0.6619 J-0.0302
G02 X187.4591 Y47.4509 I-0.5118 J0.1604
G03 X185.0000 Y44.5000 I0.5410 J-2.9509
G01 Y17.5800
G01 X184.9970 Y17.5130
G01 X184.9870 Y17.5030
G01 X184.9200 Y17.5000
G01 X19.0800
G01 X19.0130 Y17.5030
G01 X19.0030 Y17.5130
G01 X19.0000 Y17.5800
G01 Y50.9800
G03 X12.5000 Y57.5000 I-6.5047 J0.0153
G01 X8.5800
G02 X8.0060 Y57.9513 I-0.0654 J0.5075
G01 X8.0000 Y58.0800
G01 Y100.9200
G01 X8.0060 Y101.0487
G02 X8.5800 Y101.5000 I0.5090 J-0.0567
G01 X12.4800
G03 X19.0000 Y108.0000 I0.0153 J6.5047
G01 Y118.2000
G01 X19.6000
G00 Z3.0000


(Nr. 4 Ausschnitt: Teil 13)
G00 X191.3592 Y128.8621 Z3.0000
G00 Z-3.5000
G01 Z-4.0000 F800
G02 X191.7527 Y131.5592 Z-5.5000 I1.6408 J1.1379
G03 X191.3592 Y128.8621 Z-7.0000 I1.2473 J-1.5592
G02 X192.8349 Y131.9899 I1.6408 J1.1379 F2200
G02 X194.8059 Y129.1480 I0.1651 J-1.9899
G02 X191.3592 Y128.8621 I-1.8059 J0.8520
G02 X191.3043 Y128.9457 Z-7.0500 I1.6408 J1.1379 F800
G03 X191.3592 Y128.8621 Z-7.1000 I1.6957 J1.0543
G02 X192.8349 Y131.9899 I1.6408 J1.1379 F2200
G02 X194.8059 Y129.1480 I0.1651 J-1.9899
G02 X191.3592 Y128.8621 I-1.8059 J0.8520
G00 Z3.0000


(Nr. 5 Ausschnitt: Ausschnitt 6)
G00 X10.8170 Y128.0116 Z3.0000
G00 Z-3.5000
G01 Z-4.0000 F800
G02 X9.0038 Y130.0467 Z-5.5000 I0.1830 J1.9884
G03 X10.8170 Y128.0116 Z-7.0000 I1.9962 J-0.0467
G02 X9.3695 Y131.1527 I0.1830 J1.9884 F2200
G02 X12.8135 Y130.8357 I1.6305 J-1.1527
G02 X10.8170 Y128.0116 I-1.8135 J-0.8357
G02 X10.7177 Y128.0233 Z-7.0500 I0.1830 J1.9884 F800
G03 X10.8170 Y128.0116 Z-7.1000 I0.2823 J1.9767
G02 X9.3695 Y131.1527 I0.1830 J1.9884 F2200
G02 X12.8135 Y130.8357 I1.6305 J-1.1527
G02 X10.8170 Y128.0116 I-1.8135 J-0.8357
G00 Z3.0000


(Nr. 6 Ausschnitt: Teil 14)
G00 X9.5817 Y9.5945 Z3.0000
G00 Z-3.5000
G01 Z-4.0000 F800
G02 X9.5008 Y12.3190 Z-5.5000 I1.4183 J1.4055
G03 X9.5817 Y9.5945 Z-7.0000 I1.4992 J-1.3190
G02 X10.4919 Y12.9310 I1.4183 J1.4055 F2200
G02 X12.9264 Y10.4745 I0.5081 J-1.9310
G02 X9.5817 Y9.5945 I-1.9264 J0.5255
G02 X9.5131 Y9.6672 Z-7.0500 I1.4183 J1.4055 F800
G03 X9.5817 Y9.5945 Z-7.1000 I1.4869 J1.3328
G02 X10.4919 Y12.9310 I1.4183 J1.4055 F2200
G02 X12.9264 Y10.4745 I0.5081 J-1.9310
G02 X9.5817 Y9.5945 I-1.9264 J0.5255
G00 Z3.0000


(Nr. 7 Ausschnitt: Teil 11)
G00 X191.0101 Y10.8349 Z3.0000
G00 Z-3.5000
G01 Z-4.0000 F800
G02 X192.6994 Y12.9740 Z-5.5000 I1.9899 J0.1651
G03 X191.0101 Y10.8349 Z-7.0000 I0.3006 J-1.9740
G02 X193.8520 Y12.8059 I1.9899 J0.1651 F2200
G02 X194.1379 Y9.3592 I-0.8520 J-1.8059
G02 X191.0101 Y10.8349 I-1.1379 J1.6408
G02 X191.0043 Y10.9348 Z-7.0500 I1.9899 J0.1651 F800
G03 X191.0101 Y10.8349 Z-7.1000 I1.9957 J0.0652
G02 X193.8520 Y12.8059 I1.9899 J0.1651 F2200
G02 X194.1379 Y9.3592 I-0.8520 J-1.8059
G02 X191.0101 Y10.8349 I-1.1379 J1.6408
G00 Z3.0000


(Nr. 8 Teil: Teil 29)
G00 X3.1536 Y3.2924 Z3.0000
G00 Z-3.5000
G01 Z-4.0000 F800
G03 X5.5203 Y1.4640 Z-5.5000 I7.8532 J7.7197
G02 X3.1536 Y3.2924 Z-7.0000 I5.4864 J9.5481
G03 X11.0200 Y0.0000 I7.8532 J7.7197 F2200
G01 X193.0000
G01 X193.1181 Y0.0023
G03 X204.0000 Y11.0200 I-0.1194 J11.0006
G01 Y130.0000
G01 X203.9977 Y130.1181
G03 X192.9800 Y141.0000 I-11.0006 J-0.1194
G01 X11.0000
G01 X10.8819 Y140.9977
G03 X0.0016 Y130.0982 I0.1185 J-10.9985
G01 X0.0000 Y129.9800
G01 Y11.0000
G01 X0.0023 Y10.8819
G03 X3.1536 Y3.2924 I11.0010 J0.1188
G03 X3.8860 Y2.6120 Z-7.5000 I7.8532 J7.7197 F800
G02 X3.1536 Y3.2924 Z-8.0000 I7.1208 J8.4001
G03 X11.0200 Y0.0000 I7.8532 J7.7197 F2200
G01 X193.0000
G01 X193.1181 Y0.0023
G03 X204.0000 Y11.0200 I-0.1194 J11.0006
G01 Y130.0000
G01 X203.9977 Y130.1181
G03 X192.9800 Y141.0000 I-11.0006 J-0.1194
G01 X11.0000
G01 X10.8819 Y140.9977
G03 X0.0016 Y130.0982 I0.1185 J-10.9985
G01 X0.0000 Y129.9800
G01 Y11.0000
G01 X0.0023 Y10.8819
G03 X3.1536 Y3.2924 I11.0010 J0.1188
G00 Z3.0000


(Nr. 9 Gravur: Gravur 2)
G00 X204.0000 Y141.0000 Z3.0000
G00 Z-3.5000
G01 Z-4.0000 F800
G01 X201.0000 Z-5.5000
G01 X204.0000 Z-7.0000
G01 X0.0000 F2200
G01 Y0.0000
G01 X204.0000
G01 Y141.0000
G01 X203.0000 Z-7.5000 F800
G01 X204.0000 Z-8.0000
G01 X0.0000 F2200
G01 Y0.0000
G01 X204.0000
G01 Y141.0000
G00 Z3.0000


(Nr. 10 Teil: Teil 22)
G00 X-3.0000 Y66.7400 Z3.0000
G00 Z-3.5000
G01 Z-4.0000 F800
G01 Y63.7400 Z-5.5000
G01 Y66.7400 Z-7.0000
G01 Y0.0000 F2200
G03 X-2.8660 Y-0.8866 I3.0000 J0.0000
G03 X0.0200 Y-3.0000 I2.8662 J0.8867
G01 X64.2633
G01 X71.7633
G01 X132.2567
G01 X139.7567
G01 X204.0000
G03 X207.0000 Y0.0200 I0.0000 J3.0001
G01 Y66.7600
G01 Y74.2600
G01 Y141.0000
G03 X203.9800 Y144.0000 I-3.0001 J0.0000
G01 X139.7367
G01 X132.2367
G01 X71.7433
G01 X64.2433
G01 X0.0000
G03 X-2.9925 Y141.2122 I0.0000 J-3.0000
G01 X-3.0000 Y140.9800
G01 Y74.2400
G01 Y66.7400
G01 Y63.7400 Z-8.5000 F800
G01 Y66.7400 Z-10.0000
G01 Y0.0000 F2200
G03 X-2.8660 Y-0.8866 I3.0000 J0.0000
G03 X0.0200 Y-3.0000 I2.8662 J0.8867
G01 X64.2633
G01 X71.7633
G01 X132.2567
G01 X139.7567
G01 X204.0000
G03 X207.0000 Y0.0200 I0.0000 J3.0001
G01 Y66.7600
G01 Y74.2600
G01 Y141.0000
G03 X203.9800 Y144.0000 I-3.0001 J0.0000
G01 X139.7367
G01 X132.2367
G01 X71.7433
G01 X64.2433
G01 X0.0000
G03 X-2.9925 Y141.2122 I0.0000 J-3.0000
G01 X-3.0000 Y140.9800
G01 Y74.2400
G01 Y66.7400
G01 Y63.7400 Z-11.5000 F800
G01 Y66.7400 Z-13.0000
G01 Y0.0000 F2200
G03 X-2.8660 Y-0.8866 I3.0000 J0.0000
G03 X0.0200 Y-3.0000 I2.8662 J0.8867
G01 X64.2633
G01 X71.7633
G01 X132.2567
G01 X139.7567
G01 X204.0000
G03 X207.0000 Y0.0200 I0.0000 J3.0001
G01 Y66.7600
G01 Y74.2600
G01 Y141.0000
G03 X203.9800 Y144.0000 I-3.0001 J0.0000
G01 X139.7367
G01 X132.2367
G01 X71.7433
G01 X64.2433
G01 X0.0000
G03 X-2.9925 Y141.2122 I0.0000 J-3.0000
G01 X-3.0000 Y140.9800
G01 Y74.2400
G01 Y66.7400
G01 Y63.7400 Z-14.5000 F800
G01 Y66.7400 Z-16.0000
G01 Y0.0000 F2200
G03 X-2.8660 Y-0.8866 I3.0000 J0.0000
G03 X0.0200 Y-3.0000 I2.8662 J0.8867
G01 X64.2633
G00 Z-13.5000
G01 X71.7633
G01 Z-13.0000 F800
G01 X74.7633 Z-14.5000
G01 X71.7633 Z-16.0000
G01 X132.2567 F2200
G00 Z-13.5000
G01 X139.7567
G01 Z-13.0000 F800
G01 X142.7567 Z-14.5000
G01 X139.7567 Z-16.0000
G01 X204.0000 F2200
G03 X207.0000 Y0.0200 I0.0000 J3.0001
G01 Y66.7600
G00 Z-13.5000
G01 Y74.2600
G01 Z-13.0000 F800
G01 Y77.2600 Z-14.5000
G01 Y74.2600 Z-16.0000
G01 Y141.0000 F2200
G03 X203.9800 Y144.0000 I-3.0001 J0.0000
G01 X139.7367
G00 Z-13.5000
G01 X132.2367
G01 Z-13.0000 F800
G01 X129.2367 Z-14.5000
G01 X132.2367 Z-16.0000
G01 X71.7433 F2200
G00 Z-13.5000
G01 X64.2433
G01 Z-13.0000 F800
G01 X61.2433 Z-14.5000
G01 X64.2433 Z-16.0000
G01 X0.0000 F2200
G03 X-2.9925 Y141.2122 I0.0000 J-3.0000
G01 X-3.0000 Y140.9800
G01 Y74.2400
G00 Z-13.5000
G01 Y66.7400
G00 Z-15.5000
G01 Z-16.0000 F800
G01 Y64.2400 Z-17.2500
G01 Y66.7400 Z-18.5000
G01 Y0.0000 F2200
G03 X-2.8660 Y-0.8866 I3.0000 J0.0000
G03 X0.0200 Y-3.0000 I2.8662 J0.8867
G01 X64.2633
G00 Z-13.5000
G01 X71.7633
G00 Z-15.5000
G01 Z-16.0000 F800
G01 X74.2633 Z-17.2500
G01 X71.7633 Z-18.5000
G01 X132.2567 F2200
G00 Z-13.5000
G01 X139.7567
G00 Z-15.5000
G01 Z-16.0000 F800
G01 X142.2567 Z-17.2500
G01 X139.7567 Z-18.5000
G01 X204.0000 F2200
G03 X207.0000 Y0.0200 I0.0000 J3.0001
G01 Y66.7600
G00 Z-13.5000
G01 Y74.2600
G00 Z-15.5000
G01 Z-16.0000 F800
G01 Y76.7600 Z-17.2500
G01 Y74.2600 Z-18.5000
G01 Y141.0000 F2200
G03 X203.9800 Y144.0000 I-3.0001 J0.0000
G01 X139.7367
G00 Z-13.5000
G01 X132.2367
G00 Z-15.5000
G01 Z-16.0000 F800
G01 X129.7367 Z-17.2500
G01 X132.2367 Z-18.5000
G01 X71.7433 F2200
G00 Z-13.5000
G01 X64.2433
G00 Z-15.5000
G01 Z-16.0000 F800
G01 X61.7433 Z-17.2500
G01 X64.2433 Z-18.5000
G01 X0.0000 F2200
G03 X-2.9925 Y141.2122 I0.0000 J-3.0000
G01 X-3.0000 Y140.9800
G01 Y74.2400
G00 Z-13.5000
G01 Y66.7400
G00 Z3.0000
G00 X0.0000 Y0.0000

M05
